X:11402
T:Jer the Rigger
R:Reel
B:Tuneworks Tunebook (https://www.tuneworks.co.uk/)
G:tuneworks
Z:Jon Warbrick <jon.warbrick@googlemail.com>
M:2/4
L:1/16
K:A
|: "A"e2A2 e2A2 | "A"efec B2Ac | "D"d2dc defg | "E"a2e2 fecf | 
"A"e2A2 e2A2 | efec B2Ac | "D"d2fd "A"c2ec | "E"BABc "A"A4 :|
|: "A"a2ae fecf | "A"efae fece | "D"d2dc defg | "E"a2e2 fecf | 
"A"efae fece | "A"efae fece | "D"d2f"A"d c2ec | "E"BABc "A"A4 :|